X:1
T:R. R. Chope
T:Herbert
%%score { ( 1 2 ) | ( 3 4 ) }
L:1/8
Q:1/4=184
M:4/2
K:Eb
V:1 treble 
V:2 treble 
V:3 bass 
V:4 bass 
V:1
"^Presto" G4 | G4 G4 G4 G4 | B4 A4 G8 | F4 F2 F2 c4 B4 | %4
 B4 =A4[Q:1/4=112]"^Moderato" !fermata!B4[Q:1/4=184]"^Presto" G4 | G4 G4 F4 G4 | A4 F4 G8 | %7
 F8 F4 G4 | E12 | E8 E8 |] %10
V:2
 E4 | E4 E4 E4 E4 | E4 D4 E8 | D4 F2 F2 F4 B,4 | C4 E4 D4 E4 | E4 E4 (C2 D2) E4 | E4 D4 E8 | %7
 E8 E4 D4 | E12 | C8 B,8 |] %10
V:3
 B,4 | B,4 B,4 B,4 B,4 | B,4 B,4 B,8 | B,4 D2 D2 D4 E4 | C4 C4 B,4 B,4 | B,4 B,4 A,4 B,4 | %6
 C4 B,4 B,8 | C8 B,4 (B,2 A,2) | G,12 | A,8 G,8 |] %10
V:4
 E,4 | E,4 E,4 E,4 E,4 | G,4 F,4 E,8 | B,4 B,2 B,2 A,4 G,4 | F,4 F,4 B,,4 E,4 | E,4 E,4 A,4 G,4 | %6
 F,4 B,,4 E,8 | A,,8 B,,4 B,,4 | E,12 | A,,8 E,8 |] %10

